X:885
T:Mamou Two Step - fast version
S:Heaven's Gate film
Z:Nigel Gatherer
M:3/4
L:1/8
K:D
A/Bc/ | d3 dc>e | B4 c>B | A3 FE>D | D4 
A/Bc/ | d3 dc>e | B4 c>B | A3 FG>F | E4 
E>F   | A2 A>FE>F | G3 FE>F | A>B A>F E>F | G4
E>F   | A2 A2 B2 | c2 A>G E>C | D2 F2 A2 | d4 ||
A>A | c>e e>c e>f | e>c B>A A>A | c>e e>c e>f | e>c B>A A>c 
| B2 B>c B>c | d2 c2 B2 | A3 A^G>F | E4
A>A | c>e e>c e>f | e>c B>A A>A | c>e e>c e>f | e>c B>A A>c 
| B2 B>c B>c | d2 c2 B2 | A2 E2 F2| G4 |]
